public/flags/MD.svg

<svg fill="none" height="53" viewBox="0 0 61 53" width="61" xmlns="http://www.w3.org/2000/svg" xmlns:xlink="http://www.w3.org/1999/xlink"><mask id="a" height="43" maskUnits="userSpaceOnUse" width="59" x="1" y="3"><rect fill="#fff" height="42.5" rx="4.24286" width="59" x="1" y="3"/></mask><rect fill="#fff" height="42.5" rx="4.24286" width="59" x="1" y="3"/><g mask="url(#a)"><path d="m29.0952 3h30.9048v42.5h-30.9048z" fill="#eb1c43"/><g clip-rule="evenodd" fill-rule="evenodd"><path d="m1 45.5h19.6667v-42.5h-19.6667z" fill="#115bcb"/><path d="m20.6667 45.5h19.6667v-42.5h-19.6667z" fill="#ffd953"/><path d="m29.0952 20h-2.8096v8.5l4.2143 2.8333 4.2143-2.8333v-8.5h-2.8095l-1.4048-4.25zm2.8095 2.8334h-2.8096v4.25h2.8096z" fill="#af7f59"/></g></g></svg>

<svg width="61" height="53" viewBox="0 0 61 53" fill="none" xmlns="http://www.w3.org/2000/svg">
<rect x="1" y="3" width="59" height="42.5" rx="4.24286" fill="white"/>
<mask id="mask0" mask-type="alpha" maskUnits="userSpaceOnUse" x="1" y="3" width="59" height="43">
<rect x="1" y="3" width="59" height="42.5" rx="4.24286" fill="white"/>
</mask>
<g mask="url(#mask0)">
<rect x="29.0952" y="3" width="30.9048" height="42.5" fill="#EB1C43"/>
<path fill-rule="evenodd" clip-rule="evenodd" d="M1 45.5H20.6667V3H1V45.5Z" fill="#115BCB"/>
<path fill-rule="evenodd" clip-rule="evenodd" d="M20.6667 45.5H40.3334V3H20.6667V45.5Z" fill="#FFD953"/>
<path fill-rule="evenodd" clip-rule="evenodd" d="M29.0952 20H26.2856V28.5L30.4999 31.3333L34.7142 28.5V20H31.9047L30.4999 15.75L29.0952 20ZM31.9047 22.8334H29.0951V27.0834H31.9047V22.8334Z" fill="#AF7F59"/>
</g>
</svg>
